X:7866
T:B\aansull
C:anon.
O:Norway
A:Eide, Nordm\ore
R:B\aansull (Baansull), lullaby
Z:Transcribed by Frank Nordberg - http://www.musicaviva.com
F:http://abc.musicaviva.com/tunes/norway/baansull-eide/baansull-eide-1.abc
M:3/4
L:1/4
Q:1/4=142
K:Em
D/F/|AAB|AAG/G/|FFE/E/|D2D/F/|
w:Og s\aa kom han J\orn ste-gan, og s\aa kom han El-ling smed. Og s\aa
AAA/G/|ccc/B/|AAA/G/|A2A/G/|
w:kom ho gam-le Brit-ta, og s\aa kom de al-le tre. Op-p\aa
FFE/E/|DDF/F/|EEF/G/|(FE)F/G/|
w:lof-tet tel \aa dan-se s\aa og s\aa p\aa ym-se kne._ Kj\ae-re
AA/A/ B/B/|A/A/ A/A/ G/G/|FFE/E/|D2|]
w:de de m\aa ik-ke dan-se, de kan riv ned r\om-grauts-gry-ta mi.
W:
W:Og s\aa kom han J\orn stegan,
W:og s\aa kom han Elling smed.
W:Og s\aa kom ho gamle Britta,
W:og s\aa kom de alle tre.
W:  Opp\aa loftet tel \aa danse
W:  s\aa og s\aa p\aa ymse kne.
W:  Kj\aere de de m\aa ikke danse,
W: de kan riv ned r\omgrautsgryta mi.
W:
W:
W:  From Musica Viva - http://www.musicaviva.com
W:  the Internet center for free sheet music downloads.
